public/img/icons/crystal.svg

<svg width="64" height="64" viewBox="0 0 64 64" fill="none" xmlns="http://www.w3.org/2000/svg">
<path d="M52.8251 21.725L42.7001 25.65L44.5751 13.7L30.1501 2L15.7251 13.675L19.0501 34.775L10.1751 31.3L3.2251 41.825L13.2251 61.975H46.7001L54.1001 47.025L60.7751 33.85L52.8251 21.725ZM51.0001 26.025L50.9251 31.5L46.5251 29.875L51.0001 26.025ZM20.2751 59.5L15.2251 38.75L11.5251 34.45L19.5001 37.7L22.9501 59.5H20.2751ZM19.2501 14.025L26.4501 8.075L23.8251 14.325L19.2501 14.025ZM35.1751 59.5L36.9501 41.675L38.5251 36.65L31.7501 40.575V59.5H28.9251L26.5251 14.775L30.1751 5.225L41.9751 14.7L38.5251 36.65L43.7751 42.45L38.2501 59.5H35.1751ZM44.9751 59.5H42.8751L53.6001 32.525L53.4751 27.275L57.9001 34.025L44.9751 59.5Z" fill="white"/>
</svg>

<svg xmlns="http://www.w3.org/2000/svg" width="64" height="64" fill="none" viewBox="0 0 64 64"><path fill="#fff" d="M52.825 21.725 42.7 25.65l1.875-11.95L30.15 2 15.725 13.675l3.325 21.1-8.875-3.475-6.95 10.525 10 20.15H46.7l7.4-14.95 6.675-13.175zM51 26.025l-.075 5.475-4.4-1.625zM20.275 59.5l-5.05-20.75-3.7-4.3L19.5 37.7l3.45 21.8zM19.25 14.025l7.2-5.95-2.625 6.25zM35.175 59.5l1.775-17.825 1.575-5.025-6.775 3.925V59.5h-2.825l-2.4-44.725 3.65-9.55 11.8 9.475-3.45 21.95 5.25 5.8L38.25 59.5zm9.8 0h-2.1L53.6 32.525l-.125-5.25 4.425 6.75z"/></svg>
